packages/icons/svg/Outline/activity.svg

<svg fill="none" height="24" viewBox="0 0 24 24" width="24" xmlns="http://www.w3.org/2000/svg"><path clip-rule="evenodd" d="m14.3291 20.0004c-.067 0-.136-.003-.205-.01-.88-.087-1.57-.708-1.76-1.583l-2.68298-12.39198-2.763 6.38198c-.159.366-.52.603-.918.603h-3c-.553 0-1-.448-1-1 0-.553.447-1 1-1h2.344l2.506-5.78898c.355-.816 1.137-1.291 2.026-1.202.87998.087 1.56998.708 1.75998 1.583l2.683 12.39198 2.763-6.382c.159-.366.519-.602.918-.602h3c.553 0 1 .447 1 1 0 .552-.447 1-1 1h-2.344l-2.506 5.788c-.327.753-1.028 1.212-1.821 1.212" fill="#6b7280" fill-rule="evenodd"/></svg>

<svg width="24" height="24" viewBox="0 0 24 24" fill="none" xmlns="http://www.w3.org/2000/svg">
<g id="Icon/Outline/activity">
<path id="Mask" fill-rule="evenodd" clip-rule="evenodd" d="M14.329 20.0005C14.262 20.0005 14.193 19.9975 14.124 19.9905C13.244 19.9035 12.554 19.2825 12.364 18.4075L9.681 6.01549L6.918 12.3975C6.759 12.7635 6.398 13.0005 6 13.0005H3C2.447 13.0005 2 12.5525 2 12.0005C2 11.4475 2.447 11.0005 3 11.0005H5.344L7.85 5.21149C8.205 4.39549 8.987 3.92049 9.876 4.00949C10.756 4.09649 11.446 4.71749 11.636 5.59249L14.319 17.9845L17.082 11.6025C17.241 11.2365 17.601 11.0005 18 11.0005H21C21.553 11.0005 22 11.4475 22 12.0005C22 12.5525 21.553 13.0005 21 13.0005H18.656L16.15 18.7885C15.823 19.5415 15.122 20.0005 14.329 20.0005Z" fill="#000000"/>
</g>
</svg>
